src/images/pages/set_currency/aud_icon.svg

<?xml version="1.0" encoding="UTF-8"?>
<svg width="20px" height="20px" viewBox="0 0 20 20" version="1.1" xmlns="http://www.w3.org/2000/svg" xmlns:xlink="http://www.w3.org/1999/xlink">
    <!-- Generator: Sketch 47 (45396) - http://www.bohemiancoding.com/sketch -->
    <title>AUD</title>
    <desc>Created with Sketch.</desc>
    <defs></defs>
    <g id="Landing-Page" stroke="none" stroke-width="1" fill="none" fill-rule="evenodd">
        <g transform="translate(-450.000000, -478.000000)" id="Real-account">
            <g transform="translate(330.000000, 432.000000)">
                <g id="Currency" transform="translate(90.000000, 46.000000)">
                    <g id="AUD" transform="translate(30.000000, 0.000000)">
                        <path d="M13.4220004,0.60255938 C8.2456411,-1.27826266 2.48227195,1.38957002 0.601172301,6.57850459 C-1.27992735,11.7674392 1.40164024,17.5166186 6.57799957,19.3974406 C11.7543589,21.2782627 17.517728,18.61043 19.3988277,13.4214954 C21.2799274,8.23256085 18.5983598,2.48338142 13.4220004,0.60255938 Z" id="Shape" fill="#0A17A7" fill-rule="nonzero"></path>
                        <path d="M4.84441255,11.9179664 L8.39524621,11.9179664 L9.19283499,14 L10.2454884,14 L7.07703211,6.091506 L6.16276782,6.091506 L3,14 L4.05829987,14 L4.84441255,11.9179664 Z M5.15106858,11.1212608 L6.61982341,7.2545707 L8.09452461,11.1212608 L5.15106858,11.1212608 Z" id="A" stroke="#FFFFFF" stroke-width="0.5" fill="#FFFFFF" fill-rule="nonzero"></path>
                        <path d="M15.5782028,11.87806 C15.5782028,11.549621 15.4584976,11.2729509 15.2190835,11.0480416 C14.9796694,10.8231323 14.5760122,10.619646 14.0080997,10.4375765 C13.2174765,10.2055272 12.641221,9.90297514 12.279316,9.52991126 C11.917411,9.15684738 11.7364612,8.68293841 11.7364612,8.10817013 C11.7364612,7.52269189 11.9136992,7.04253553 12.2681805,6.66768666 C12.6226619,6.29283778 13.1098344,6.0697168 13.7297127,5.99831701 L13.7297127,5 L14.5593061,5 L14.5593061,6.00367197 C15.1828963,6.08578172 15.6682129,6.33746219 16.0152705,6.75872093 C16.3623281,7.17997967 16.5358543,7.75652429 16.5358543,8.48837209 L15.5113899,8.48837209 C15.5113899,7.9850036 15.3870449,7.5851708 15.1383512,7.28886169 C14.8896575,6.99255258 14.5537405,6.84440024 14.13059,6.84440024 C13.6888803,6.84440024 13.3511074,6.95417577 13.1172611,7.17373011 C12.8834148,7.39328445 12.7664934,7.69940644 12.7664934,8.09210526 C12.7664934,8.45624417 12.8899104,8.74630145 13.1367482,8.9622858 C13.383586,9.17827015 13.790027,9.37461662 14.3560836,9.55133109 C14.9221401,9.72804556 15.3638432,9.92260706 15.681206,10.1350214 C15.9985689,10.3474358 16.2324117,10.5946538 16.3827414,10.876683 C16.5330712,11.1587121 16.608235,11.4889312 16.608235,11.8673501 C16.608235,12.4706783 16.4198616,12.9561895 16.0431092,13.3238984 C15.6663568,13.6916073 15.1383546,13.9093734 14.4590868,13.9772032 L14.4590868,15 L13.6350611,15 L13.6350611,13.9772032 C12.9446577,13.9165134 12.4036642,13.6800051 12.0120644,13.2676714 C11.6204647,12.8553376 11.4246677,12.2957502 11.4246677,11.5888923 L12.4546999,11.5888923 C12.4546999,12.0851208 12.5901802,12.4671039 12.861145,12.7348531 C13.1321098,13.0026023 13.5162801,13.1364749 14.0136675,13.1364749 C14.4999193,13.1364749 14.8822337,13.0240219 15.1606222,12.7991126 C15.4390107,12.5742033 15.5782028,12.2671888 15.5782028,11.87806 Z" id="USD" stroke="#FFFFFF" stroke-width="0.5" fill="#FFFFFF"></path>
                    </g>
                </g>
            </g>
        </g>
    </g>
</svg>

<svg width="20" height="20" viewBox="0 0 20 20" xmlns="http://www.w3.org/2000/svg"><title>AUD</title><g fill="none" fill-rule="evenodd"><path d="M13.422.603C8.246-1.278 2.482 1.39.602 6.579c-1.882 5.188.8 10.938 5.976 12.818 5.176 1.881 10.94-.787 12.82-5.976 1.882-5.188-.8-10.938-5.976-12.818z" fill="#0A17A7" fill-rule="nonzero"/><path d="M4.844 11.918h3.551L9.193 14h1.052L7.077 6.092h-.914L3 14h1.058l.786-2.082zm.307-.797L6.62 7.255l1.475 3.866H5.15z" stroke="#FFF" stroke-width=".5" fill="#FFF" fill-rule="nonzero"/><path d="M15.578 11.878c0-.328-.12-.605-.359-.83-.24-.225-.643-.428-1.21-.61-.792-.232-1.368-.535-1.73-.908-.362-.373-.543-.847-.543-1.422 0-.585.178-1.065.532-1.44.355-.375.842-.598 1.462-.67V5h.83v1.004c.623.082 1.108.333 1.455.755.347.421.52.998.52 1.73h-1.024c0-.504-.124-.904-.373-1.2-.248-.296-.584-.445-1.007-.445-.442 0-.78.11-1.014.33-.234.22-.35.525-.35.918 0 .364.123.654.37.87.247.216.653.413 1.22.59.565.176 1.007.37 1.324.583.318.212.551.46.702.742.15.282.225.612.225.99 0 .604-.188 1.09-.565 1.457-.377.368-.905.585-1.584.653V15h-.824v-1.023c-.69-.06-1.231-.297-1.623-.71-.392-.412-.587-.971-.587-1.678h1.03c0 .496.135.878.406 1.146.271.268.655.401 1.153.401.486 0 .868-.112 1.147-.337.278-.225.417-.532.417-.92z" stroke="#FFF" stroke-width=".5" fill="#FFF"/></g></svg>
